packages/foundations/assets/icons/functional/images/editing/copy_28.svg

<svg width="28" height="28" viewBox="0 0 28 28" fill="none" xmlns="http://www.w3.org/2000/svg">
<g clip-path="url(#clip0_83_114)">
<path fill-rule="evenodd" clip-rule="evenodd" d="M7.87498 8.75C8.35798 8.75 8.74998 9.142 8.74998 9.625C8.74998 10.074 8.32698 10.505 7.87498 10.5H5.68698C5.47298 10.5 5.24998 10.712 5.24998 10.938V23.188C5.24998 23.402 5.47698 23.626 5.68798 23.625H15.313C15.527 23.625 15.751 23.389 15.75 23.187V21.875C15.75 21.392 16.142 21 16.625 21C17.074 21 17.503 21.439 17.5 21.875V23.188C17.5 24.348 16.447 25.378 15.312 25.375H5.68798C4.52798 25.375 3.50398 24.329 3.49998 23.187V10.937C3.49998 9.777 4.53898 8.755 5.68798 8.75H7.87498ZM22.313 2.625C23.473 2.625 24.506 3.702 24.5 4.813V17.063C24.5 18.223 23.448 19.254 22.312 19.25H12.687C11.527 19.25 10.509 18.202 10.5 17.062V4.813C10.5 3.653 11.537 2.631 12.688 2.626H22.312L22.313 2.625ZM12.688 4.375C12.473 4.375 12.255 4.598 12.25 4.813V17.063C12.25 17.277 12.454 17.505 12.688 17.5H22.312C22.527 17.5 22.757 17.274 22.75 17.062V4.813C22.75 4.599 22.507 4.383 22.312 4.376H12.687L12.688 4.375Z" fill="#1A1C1F"/>
</g>
<defs>
<clipPath id="clip0_83_114">
<rect width="28" height="28" fill="white"/>
</clipPath>
</defs>
</svg>

<svg xmlns="http://www.w3.org/2000/svg" width="28" height="28" fill="none"><g clip-path="url(#a)"><path fill="#1A1C1F" fill-rule="evenodd" d="M7.875 8.75c.483 0 .875.392.875.875 0 .449-.423.88-.875.875H5.687c-.214 0-.437.212-.437.438v12.25c0 .214.227.438.438.437h9.625c.214 0 .438-.236.437-.438v-1.312c0-.483.392-.875.875-.875.449 0 .878.439.875.875v1.313c0 1.16-1.053 2.19-2.188 2.187H5.688c-1.16 0-2.184-1.046-2.188-2.188v-12.25c0-1.16 1.039-2.182 2.188-2.187zm14.438-6.125c1.16 0 2.193 1.077 2.187 2.188v12.25c0 1.16-1.052 2.191-2.188 2.187h-9.625c-1.16 0-2.178-1.048-2.187-2.188V4.813c0-1.16 1.037-2.182 2.188-2.187zm-9.625 1.75c-.215 0-.433.223-.438.438v12.25c0 .214.204.442.438.437h9.624c.215 0 .445-.226.438-.438V4.813c0-.214-.243-.43-.438-.437h-9.625z" clip-rule="evenodd"/></g><defs><clipPath id="a"><path fill="#fff" d="M0 0h28v28H0z"/></clipPath></defs></svg>
